src/16/panel/pushbullet-indicator-sync3-light.svg

<svg xmlns="http://www.w3.org/2000/svg" width="16" height="16" version="1.1">
 <defs>
  <style id="current-color-scheme" type="text/css">
   .ColorScheme-Text { color:#dfdfdf; } .ColorScheme-Highlight { color:#4285f4; }
  </style>
 </defs>
 <path style="fill:currentColor" class="ColorScheme-Text" d="M -2e-4,2 V 14 H 1.9998 V 2 Z M 3.9998,2 V 14 L 8.252,13.967 C 11.183,13.934 11.46,13.895 12.699,13.291 15.401,11.975 16.679,8.786 15.64,5.9472 14.954,4.0721 13.392,2.6844 11.403,2.1795 10.778,2.0209 10.383,1.9998 7.955,1.9998 H 3.9993 Z M 10,2.3437 11.414,3.7578 12.121,4.4649 11.414,5.1719 10,6.586 9.293,5.879 10.221,4.9512 C 9.519,4.8654 8.706,5.0517 7.879,5.879 5.7574,8 7.879,10.121 7.879,10.121 L 7.172,10.828 C 7.172,10.828 4.3433,8 7.172,5.172 8.22,4.1237 9.273,3.8598 10.178,3.9337 L 9.293,3.051 10,2.344 Z M 12.828,5.1718 C 12.828,5.1718 15.656,8 12.828,10.828 11.779,11.876 10.726,12.14 9.822,12.066 L 10.707,12.949 10,13.656 8.586,12.242 7.879,11.535 8.586,10.828 10,9.414 10.707,10.121 9.779,11.049 C 10.48,11.135 11.294,10.948 12.121,10.121 14.242,8 12.121,5.8788 12.121,5.8788 L 12.828,5.1726 Z"/>
</svg>

<svg xmlns="http://www.w3.org/2000/svg" width="16" height="16"><defs><style id="current-color-scheme" type="text/css"></style></defs><path d="M0 2v12h2V2zm4 0v12l4.252-.033c2.931-.033 3.208-.072 4.447-.676 2.702-1.316 3.98-4.505 2.941-7.344-.686-1.875-2.248-3.263-4.237-3.768-.625-.158-1.02-.18-3.448-.18H3.999zm6 .344l1.414 1.414.707.707-.707.707L10 6.586l-.707-.707.928-.928c-.702-.086-1.515.1-2.342.928-2.122 2.121 0 4.242 0 4.242l-.707.707S4.343 8 7.172 5.172C8.22 4.124 9.273 3.86 10.178 3.934l-.885-.883.707-.707zm2.828 2.828s2.828 2.828 0 5.656c-1.049 1.048-2.102 1.312-3.006 1.238l.885.883-.707.707-1.414-1.414-.707-.707.707-.707L10 9.414l.707.707-.928.928c.701.086 1.515-.101 2.342-.928 2.121-2.121 0-4.242 0-4.242l.707-.706z" fill="currentColor" color="#bebebe"/></svg>
